web/file/site/v.svg

<svg xmlns="http://www.w3.org/2000/svg" style="isolation:isolate" viewBox="0 0 500 500" width="500" height="500"><defs><clipPath id="a"><path d="M0 0h500v500H0z"/></clipPath></defs><g clip-path="url(#a)"><path d="M318.422 453.543 463.705 49.541c2.463-6.852-1.42-11.848-8.668-11.149L340.786 49.398c-7.247.699-15.076 6.848-17.47 13.723L188.843 449.216c-2.396 6.875 1.571 12.457 8.852 12.457h111.206c3.64 0 7.596-2.78 8.828-6.207l.693-1.923Z" fill="#536B8A"/><defs><filter id="b" x="-200%" y="-200%" width="400%" height="400%" filterUnits="objectBoundingBox" color-interpolation-filters="sRGB"><feGaussianBlur xmlns="http://www.w3.org/2000/svg" in="SourceGraphic" stdDeviation="6.44"/><feOffset xmlns="http://www.w3.org/2000/svg" result="pf_100_offsetBlur"/><feFlood xmlns="http://www.w3.org/2000/svg" flood-color="#000" flood-opacity=".65"/><feComposite xmlns="http://www.w3.org/2000/svg" in2="pf_100_offsetBlur" operator="in" result="pf_100_dropShadow"/><feBlend xmlns="http://www.w3.org/2000/svg" in="SourceGraphic" in2="pf_100_dropShadow"/></filter></defs><g filter="url(#b)"><path d="m301.848 455.466-60.489-174.741 8.641-5.401 61.57 178.219-9.722 1.923Z" fill="#EBEBEB"/></g><path d="m44.963 38.392 114.251 11.006c7.247.699 15.084 6.845 17.49 13.717l137.318 392.333c1.202 3.437-.777 6.225-4.418 6.225H197.695c-7.281 0-15.193-5.562-17.657-12.414L36.295 49.541c-2.463-6.852 1.42-11.848 8.668-11.149Z" fill="#5D87BF"/></g></svg>

<?xml version="1.0" encoding="UTF-8" standalone="no"?><!-- Generator: Gravit.io --><svg xmlns="http://www.w3.org/2000/svg" xmlns:xlink="http://www.w3.org/1999/xlink" style="isolation:isolate" viewBox="0 0 500 500" width="500px" height="500px"><defs><clipPath id="_clipPath_8TWIgR1z3pxinjWBiigzcEIrVJKv9Gq4"><rect width="500" height="500"/></clipPath></defs><g clip-path="url(#_clipPath_8TWIgR1z3pxinjWBiigzcEIrVJKv9Gq4)"><path d=" M 318.422 453.543 L 463.705 49.541 C 466.168 42.689 462.285 37.693 455.037 38.392 L 340.786 49.398 C 333.539 50.097 325.71 56.246 323.316 63.121 L 188.843 449.216 C 186.447 456.091 190.414 461.673 197.695 461.673 L 308.901 461.673 C 312.541 461.673 316.497 458.893 317.729 455.466 L 318.422 453.543 Z " fill="rgb(83,107,138)"/><defs><filter id="Hmac7mZraFWHw0G84Yxj4QuzeTFp0E7Y" x="-200%" y="-200%" width="400%" height="400%" filterUnits="objectBoundingBox" color-interpolation-filters="sRGB"><feGaussianBlur xmlns="http://www.w3.org/2000/svg" in="SourceGraphic" stdDeviation="6.440413594258542"/><feOffset xmlns="http://www.w3.org/2000/svg" dx="0" dy="0" result="pf_100_offsetBlur"/><feFlood xmlns="http://www.w3.org/2000/svg" flood-color="#000000" flood-opacity="0.65"/><feComposite xmlns="http://www.w3.org/2000/svg" in2="pf_100_offsetBlur" operator="in" result="pf_100_dropShadow"/><feBlend xmlns="http://www.w3.org/2000/svg" in="SourceGraphic" in2="pf_100_dropShadow" mode="normal"/></filter></defs><g filter="url(#Hmac7mZraFWHw0G84Yxj4QuzeTFp0E7Y)"><path d=" M 301.848 455.466 L 241.359 280.725 L 250 275.324 L 311.57 453.543 L 301.848 455.466 Z " fill="rgb(235,235,235)"/></g><path d=" M 44.963 38.392 L 159.214 49.398 C 166.461 50.097 174.298 56.243 176.704 63.115 L 314.022 455.448 C 315.224 458.885 313.245 461.673 309.604 461.673 L 197.695 461.673 C 190.414 461.673 182.502 456.111 180.038 449.259 L 36.295 49.541 C 33.832 42.689 37.715 37.693 44.963 38.392 Z " fill="rgb(93,135,191)"/></g></svg>
